modules/zondicons/icons/printer.svg

<svg width="20" height="20" viewBox="0 0 20 20" xmlns="http://www.w3.org/2000/svg"><path d="M16 16h4V8c0-1.113-.891-2-1.99-2H1.99A2 2 0 0 0 0 8v8h4v-6h12v6zM4 10h12v10H4V10zm2 2h8v6H6v-6zM4 0h12v5H4V0zM2 8h2v2H2V8zm4 0h2v2H6V8z" fill="#000" fill-rule="evenodd"/></svg>

<?xml version="1.0" encoding="UTF-8" standalone="no"?>
<svg width="20px" height="20px" viewBox="0 0 20 20" version="1.1" xmlns="http://www.w3.org/2000/svg" xmlns:xlink="http://www.w3.org/1999/xlink">
    <!-- Generator: Sketch 3.7.2 (28276) - http://www.bohemiancoding.com/sketch -->
    <title>printer</title>
    <desc>Created with Sketch.</desc>
    <defs></defs>
    <g id="Page-1" stroke="none" stroke-width="1" fill="none" fill-rule="evenodd">
        <g id="printer" fill="#000000">
            <path d="M16,16 L20,16 L20,7.99961498 C20,6.88743329 19.1086907,6 18.0092049,6 L1.99079514,6 C0.898212381,6 0,6.89525812 0,7.99961498 L0,16 L4,16 L4,10 L16,10 L16,16 Z M4,10 L16,10 L16,20 L4,20 L4,10 Z M6,12 L14,12 L14,18 L6,18 L6,12 Z M4,0 L16,0 L16,5 L4,5 L4,0 Z M2,8 L4,8 L4,10 L2,10 L2,8 Z M6,8 L8,8 L8,10 L6,10 L6,8 Z" id="Combined-Shape"></path>
        </g>
    </g>
</svg>
